src/icons/1x4.svg

<svg xmlns="http://www.w3.org/2000/svg" width="512" height="512" viewBox="0 0 512 512">
    <path d="M356.3 89.5H416v320h-59.7v-320zm-86.7 0h59.7v320h-59.7v-320zm-86.8 0h59.7v320h-59.7v-320zm-86.8 0h59.7v320H96v-320z"/>
</svg>

<?xml version="1.0" encoding="UTF-8"?>
<svg width="512px" height="512px" viewBox="0 0 512 512" version="1.1" xmlns="http://www.w3.org/2000/svg" xmlns:xlink="http://www.w3.org/1999/xlink">
    <!-- Generator: Sketch 62 (91390) - https://sketch.com -->
    <title>1x4</title>
    <desc>Created with Sketch.</desc>
    <g id="1x4" stroke="none" stroke-width="1" fill="none" fill-rule="evenodd">
        <path d="M356.3,89.5 L416,89.5 L416,409.5 L356.3,409.5 L356.3,89.5 Z M269.6,89.5 L329.3,89.5 L329.3,409.5 L269.6,409.5 L269.6,89.5 Z M182.8,89.5 L242.5,89.5 L242.5,409.5 L182.8,409.5 L182.8,89.5 Z M96,89.5 L155.7,89.5 L155.7,409.5 L96,409.5 L96,89.5 Z" id="Shape" fill="#000000" fill-rule="nonzero"></path>
    </g>
</svg>
